X:57
T:score148
L:1/16
Q:1/4=96
M:2/4
I:linebreak $
K:C
!p! (ef | g2>)(g2 ^fgag | e2>)(e2 ^defe | c2>)(c2 dcBc |!>(! ^c4!>)! d2)(de |$ f2>)(f2 efgf | %6
 d2>)(d2 ^cded | B2)g2 g2g2 |!>(! (g4!>)! c2) z2 |] %9
